modules/themify-icons/icons/list.svg

<?xml version="1.0" encoding="utf-8"?>
<!-- Generated by IcoMoon.io -->
<!DOCTYPE svg PUBLIC "-//W3C//DTD SVG 1.1//EN" "http://www.w3.org/Graphics/SVG/1.1/DTD/svg11.dtd">
<svg version="1.1" xmlns="http://www.w3.org/2000/svg" xmlns:xlink="http://www.w3.org/1999/xlink" width="17" height="17" viewBox="0 0 17 17">
<g>
</g>
	<path d="M17 4v1h-12v-1h12zM3 4.5c0 0.827-0.673 1.5-1.5 1.5s-1.5-0.673-1.5-1.5 0.673-1.5 1.5-1.5 1.5 0.673 1.5 1.5zM2 4.5c0-0.275-0.224-0.5-0.5-0.5s-0.5 0.225-0.5 0.5 0.224 0.5 0.5 0.5 0.5-0.225 0.5-0.5zM5 9h12v-1h-12v1zM3 8.5c0 0.827-0.673 1.5-1.5 1.5s-1.5-0.673-1.5-1.5 0.673-1.5 1.5-1.5 1.5 0.673 1.5 1.5zM2 8.5c0-0.275-0.224-0.5-0.5-0.5s-0.5 0.225-0.5 0.5 0.224 0.5 0.5 0.5 0.5-0.225 0.5-0.5zM5 13h12v-1h-12v1zM3 12.5c0 0.827-0.673 1.5-1.5 1.5s-1.5-0.673-1.5-1.5 0.673-1.5 1.5-1.5 1.5 0.673 1.5 1.5zM2 12.5c0-0.275-0.224-0.5-0.5-0.5s-0.5 0.225-0.5 0.5 0.224 0.5 0.5 0.5 0.5-0.225 0.5-0.5z" fill="#000000" />
</svg>

<svg xmlns="http://www.w3.org/2000/svg" width="17" height="17" viewBox="0 0 17 17"><path d="M17 4v1H5V4h12zM3 4.5C3 5.327 2.327 6 1.5 6S0 5.327 0 4.5.673 3 1.5 3 3 3.673 3 4.5zm-1 0a.5.5 0 10-1.002.002A.5.5 0 002 4.5zM5 9h12V8H5v1zm-2-.5c0 .827-.673 1.5-1.5 1.5S0 9.327 0 8.5.673 7 1.5 7 3 7.673 3 8.5zm-1 0a.5.5 0 10-1.002.002A.5.5 0 002 8.5zM5 13h12v-1H5v1zm-2-.5c0 .827-.673 1.5-1.5 1.5S0 13.327 0 12.5.673 11 1.5 11s1.5.673 1.5 1.5zm-1 0a.5.5 0 10-1.002.002A.5.5 0 002 12.5z"/></svg>
